X:251
T:Whistler of Rosslea, The
R:reel
C:Ed Reavy
Z:transcribed by Dave Marshall
M:C|
K:G
|: GABc cBBg | fdcA B~G3 | FGAB c2Bc | dBcA BGAF |
GBAc Bdce | dgfa gedc | Bdge fdcA | AGGF G4 :|
|: g2dg Bgdg | gbag fdde | =f2cf Afcf | =fedc AG^FA |
G~g3 gedc | Bcde fdef | g2de fdcA | AGGF G4 :|
